X: 73
T: No_164_Hair_Dance_Song_(b).krn
N: Derived from No_164_Hair_Dance_Song_(b).krn
%%abc-version 2.0
%%abcx-abcm2ps-target-version 5.9.1 (29 Sep 2008)
%%abc-creator hum2abc beta
%%abcx-conversion-date 2019/03/15 08:38:45
%%humdrum-veritas 3324618664
%%humdrum-veritas-data 1392628960
%%linebreak <none>
%%barnumbers 0
L: 1/8
M: 3/4
K: E clef=bass
[K:clef=bass][M:3/4]G,/G,/G, G,/F,3/ E,/E,/E, ||  
[M:2/4]G,2F, z | 
G,/G,/G,F,2 ||  
[M:3/4]E,/E,/C,/B,,/B,,2z2 | 
B,,2B,,E,B,,2 | 
B,,2C,/B,,3/ B,,F, ||  
[M:2/4](E,F,) (E,C,) | 
B,, zz2 ||  
[M:3/4]B,,2C,/B,,3/B,,2 | 
G,/G,3/F,2E,/E,3/ ||  
[M:2/4]G,2F, z | 
G,/G,G,/F,2 | 
E,/E,/C,/B,,/B,,2 |]  



